X: 1
T: Wake Up Susan
O: Woodshed Allstars
R: reel
Z: 2020 John Chambers <jc:trillian.mit.edu>
S: https://www.facebook.com/groups/Fiddletuneoftheday/
S: https://www.facebook.com/groups/Fiddletuneoftheday/photos/
M: C
L: 1/8
K: A
(3(vefg |\
"A"a2)A2 AcBA | E2A2 AcBA | "Bm"d2Bc (dc)BA | "E"(GA)Bc (de)fg | "A"a2A2 AcBA | E2A2 AcBA |
"E"GABc defg | "A"(ag)ab a2 (3(vefg | "A"a2)AA (Ac)BA | E2AA (Ac)BA | "Bm"(dc)BA (Bc)BA | "E"(GAB)(c de)fg |
"A"{g}a2AA (Ac)BA | E2AA (Ac)BA | "E"(GAB)(c de)fg | "A"(af)ec A3(vF- |]
"A"E2)(EF) E(DE2) | "D"vF2FE (FA-A2) | "E"vB3A G2B2 | "A"(Ac)BA (ce-e2) | "A"E2(EF) E(DE2) |
"D"(FG)FE (FA2)(A | "E"ABc)(A Bc)AB | "A"(cA)"E"BG A2"A"(vAF | E2)EF (ED)EE | "D"F2FE (FA-A2) |
"E"(B3A) (GA)B(B | "A"Ac)BA ce-e2 | "A"E2(EF) E(DE2) | "D"(FG)FE (FA-A2) | "E"e4 (e=g2)(g | "A"ef)ed "E7"(cd)eg |]
